!!!!SEGMENT: pl-kk--kk-i-38--007_lasso-orlando-di--gustate-et-videte.krn
!!!cenid: 16xx:1257
!!!COM: Lasso, Orlando di
!!!COM-rismid: pe506
!!!CDT: ~1532-1594/06/14
!!!CNT: French-Flemish
!!!OTL: Gustate et videte
!!!PDT:
!!!AGN: Sacred
!!!SMS-siglum: PL-Kk
!!!SMS-shelfmark: Kk.I.38
!!!SMS-shelfwork: 007 W
!!!SMS-variant:
!!!SMS-altvar:
!!!NIFC-rismid: 1001154386
!!!URL-scan: http://repozytorium.nifc.pl/skany/pl-kk-nut--i-38
!!!ONB-nifc: Lib. 1. Fol. 20. 2da parte (jeśli występuje), należy do utworu tytułowego
!!!AIN: 1 empty
!!!key:
**kern	**text
*Iempty	*
*I"Baſso Ripieno.	*
*clefF4	*
*k[]	*
*C:	*
*M2/1	*
*met(C|)	*
=1-	=1-
!LO:TX:a:t=Lib. 1. Fol. 20.	!
00r	.
=2-	=2-
.	.
=3-	=3-
00r	.
=4-	=4-
.	.
=5-	=5-
00r	.
=6-	=6-
.	.
=7-	=7-
!LO:TX:t=P:problem=kreska pseudotaktowa	!
1r	.
0C	Gu-
=8-	=8-
.	.
1D	-sta-
=9-	=9-
*2\right	*
!LO:TX:t=P:global:problem=oddech jako rozdzielacz słów	!
2E,<\	-te
!LO:TX:t=P:problem=kreska pseudotaktowa	!
2C/	et
2E\	vi-
2.G\	-de-
=10-	=10-
.	.
8F\L	.
8E\J	.
!LO:TX:t=P:problem=kreska pseudotaktowa	!
2F\	.
4G\	.
4F\	.
4E\	.
4D\	.
=11-	=11-
2C/	-te
!LO:TX:t=P:problem=kreska pseudotaktowa	!
2r	.
0r	.
=12-	=12-
.	.
!LO:TX:t=P:problem=kreska pseudotaktowa	!
1r	.
=13-	=13-
2r	.
2.D\	quo-
4D\	-ni-
!LO:TX:t=P:problem=kreska pseudotaktowa	!
2D\	-am
=14-	=14-
2G\	su-
1GG	-a-
2C/	-vis
=15-	=15-
!LO:TX:t=P:problem=kreska pseudotaktowa	!
1C,<	eſt
2BB-X/	Do-
!LO:TX:t=P:problem=kreska pseudotaktowa	!
[<2BB-/	.
=16-	=16-
2BB-/]	.
2F\	-mi-
!LO:TX:t=P:problem=kreska pseudotaktowa	!
1C	-n(us),
=17-	=17-
1r	.
2.C/	quo-
4C/	-ni-
=18-	=18-
2C/	-a(m)
!LO:TX:t=P:problem=kreska pseudotaktowa	!
2AA/	su-
!LO:LB:g=original	!
1F	-a-
=19-	=19-
2C,</	-vis
2C/	eſt
1.D	Do-
=20-	=20-
.	.
2GG/	-mi-
!LO:TX:t=P:problem=kreska pseudotaktowa	!
1GG,<	-n(us).
=21-	=21-
1C	be-
1D	-a-
=22-	=22-
!LO:TX:t=P:problem=kreska pseudotaktowa	!
1E,<	-t(us)
2.F\	Vir
!LO:TX:t=P:problem=kreska pseudotaktowa	!
4E\	.
=23-	=23-
2D,<\	.
!LO:TX:t=P:problem=kreska pseudotaktowa	!
2F\	qui
4E/	spe-
4D/	.
4C/	.
!LO:TX:t=P:problem=kreska pseudotaktowa	!
4BBny/	.
=24-	=24-
2AA/	.
!LO:TX:t=P:problem=kreska pseudotaktowa	!
2D\	-rat
2G\	in
2GG/	.
=25-	=25-
2.C/	E-
4BB/	.
1AA	.
=26-	=26-
!LO:TX:t=P:problem=kreska pseudotaktowa	!
1GG,<	o:
1C	be-
=27-	=27-
1D	-a-
!LO:TX:t=P:problem=kreska pseudotaktowa	!
1E,<	-t(us)
=28-	=28-
2.F\	Vir
!LO:TX:t=P:problem=kreska pseudotaktowa	!
4E\	.
2D,<\	qui
2GG/	spe-
=29-	=29-
1C	.
2AA,</	-rat
2E\	in
=30-	=30-
1G	e-
!LO:TX:t=P:problem=kreska pseudotaktowa	!
1GG,<	-o.
=31-	=31-
!LO:LB:g=original	!
1r	.
2r	.
!LO:TX:t=P:problem=kreska pseudotaktowa	!
2GG/	Ti-
=32-	=32-
1.C	-me-
2AA/	-te
=33-	=33-
2.E\	Do-
!LO:TX:t=P:problem=kreska pseudotaktowa	!
4E\	-mi-
2AA,</	-nu(m)
1A\	om-
=34-	=34-
.	.
!LO:TX:t=P:problem=kreska pseudotaktowa	!
2G\	-nes
2F\	S(an)-
2D\	-cti
=35-	=35-
1A	e-
!LO:TX:t=P:problem=kreska pseudotaktowa	!
1G	-jus
=36-	=36-
2r	.
2C/	Ti-
1.F	-me-
=37-	=37-
.	.
!LO:TX:t=P:problem=kreska pseudotaktowa	!
2E\	-te
2.G\	D(o-
4G\	-mi)-
=38-	=38-
2D,</	-num
1A	om-
!LO:TX:t=P:problem=kreska pseudotaktowa	!
2E\	-nes
=39-	=39-
2F\	S(an)-
2C/	-cti
!LO:TX:t=P:problem=kreska pseudotaktowa	!
1D	e-
=40-	=40-
2AA,</	-jus,
1A	o(m-
!LO:TX:t=P:problem=kreska pseudotaktowa	!
2G\	-n)es
=41-	=41-
2F\	S(an)-
2E\	-cti
*lig	*
1C	e-
=42-	=42-
1D	.
*Xlig	*
!LO:TX:t=P:problem=kreska pseudotaktowa	!
1GG,<	-jus;
=43-	=43-
1.G	quo-
2G\	-ni-
=44-	=44-
!LO:TX:t=P:problem=kreska pseudotaktowa	!
1G	-am
!LO:TX:t=P:problem=kreska pseudotaktowa	!
!LO:LB:g=original	!
1r	.
=45-	=45-
1.C	quo-
2C/	-ni-
=46-	=46-
!LO:TX:t=P:problem=kreska pseudotaktowa	!
1C	-am
1GG	non
=47-	=47-
2C,</	eſt
!LO:TX:t=P:problem=kreska pseudotaktowa	!
2E\	in-
2.D\	-o-
4D\	-pi-
=48-	=48-
!LO:TX:t=P:problem=kreska pseudotaktowa	!
1C,<	-a
1r	.
=49-	=49-
2r	.
!LO:TX:t=P:problem=kreska pseudotaktowa	!
2G\	ti-
1G	-men-
=50-	=50-
2F#X\	-ti-
2G,<\	-b(us)
1E	e-
=51-	=51-
!LO:TX:t=P:problem=kreska pseudotaktowa	!
1D	-um,
0r	.
=52-	=52-
.	.
2r	.
*	*ij
2Fny\	ti-
=53-	=53-
!LO:TX:t=P:problem=kreska pseudotaktowa	!
1F	-men-
2E\	-ti-
2F\	-bus
=54-	=54-
2G\	e-
!LO:TX:t=P:problem=kreska pseudotaktowa	!
2C/	-um,
*	*Xij
1r	.
=55-	=55-
2r	.
2C/	ti-
!LO:TX:t=P:problem=kreska pseudotaktowa	!
1C	-men-
=56-	=56-
2BB/	-ti-
2C/	-b(us)
1AA	e-
=57-	=57-
2GG,</	-um
*	*ij
!LO:TX:t=P:problem=kreska pseudotaktowa	!
2GG/	ti-
2C/	-men-
2C/	-ti-
=58-	=58-
2D/	-bus
2GG/	e-
!LO:TX:t=P:problem=kreska pseudotaktowa	!
1AA,<	-um
*	*Xij
=59-	=59-
!LO:LB:g=original	!
0r	.
=60-	=60-
!LO:TX:t=P:problem=kreska pseudotaktowa	!
1r	.
1G	Ti-
=61-	=61-
2G\	-men-
!LO:TX:t=P:problem=kreska pseudotaktowa	!
2F#X\	-ti-
2G\	-b(us)
2E\	e-
=62-	=62-
*lig	*
1D	-um
!LO:TX:t=P:problem=kreska pseudotaktowa	!
1C	.
*Xlig	*
=63-	=63-
2r	.
*	*ij
2C/	Ti-
2.G\	-men-
!LO:TX:t=P:problem=kreska pseudotaktowa	!
4G\	-ti-
=64-	=64-
2Fny\	-bus
2C/	e-
!LO:TX:t=P:problem=kreska pseudotaktowa	!
1D	-um
*	*Xij
=65-	=65-
2r	.
2C/	Ti-
1.C	-men-
=66-	=66-
.	.
!LO:TX:t=P:problem=kreska pseudotaktowa	!
2BB/	-ti-
2C/	-b(us)
2C/	e-
=67-	=67-
0GG;	-um.
=68||-	=68||-
*M2/1	*
*met(C|)	*
!LO:TX:t=P:problem=kreska pseudotaktowa	!
!LO:TX:a:B:t=2da\nparte	!
1r	.
1.G	Di-
=69-	=69-
.	.
2G\	-vi-
!LO:TX:t=P:problem=kreska pseudotaktowa	!
1E,<	-tes
=70-	=70-
1.F	e-
2E\	-gu-
=71-	=71-
1G	-e-
!LO:TX:t=P:problem=kreska pseudotaktowa	!
0GG	-runt,
=72-	=72-
.	.
!LO:TX:t=P:problem=kreska pseudotaktowa	!
00r	.
=73-	=73-
.	.
=74-	=74-
.	.
!LO:LB:g=original	!
2r	.
!LO:TX:t=P:problem=kreska pseudotaktowa	!
2GG/	et
=75-	=75-
2D\	e-
1D	-su-
!LO:TX:t=P:problem=kreska pseudotaktowa	!
2BB/	-ri-
=76-	=76-
1C	-e-
2GG,</	-runt:
1G\	et
=77-	=77-
.	.
!LO:TX:t=P:problem=kreska pseudotaktowa	!
2F\	e-
2E\	-su-
!LO:TX:t=P:problem=kreska pseudotaktowa	!
2C/	-ri-
=78-	=78-
1D	-e-
!LO:TX:t=P:problem=kreska pseudotaktowa	!
0GG	-runt;
=79-	=79-
.	.
1r	.
=80-	=80-
2r	.
1G	in-
!LO:TX:t=P:problem=kreska pseudotaktowa	!
2C/	-qui-
=81-	=81-
2E\	-ren-
2E,<\	-tes
1G	au-
=82-	=82-
!LO:TX:t=P:problem=kreska pseudotaktowa	!
1C	-tem
1r	.
=83-	=83-
2r	.
1D	in-
!LO:TX:t=P:problem=kreska pseudotaktowa	!
2GG/	-qui-
=84-	=84-
2BB/	-ren-
2BB/	-tes
!LO:TX:t=P:problem=kreska pseudotaktowa	!
1D	au-
=85-	=85-
2GG,</	-tem
*	*ij
1G	in-
!LO:TX:t=P:problem=kreska pseudotaktowa	!
2C/	-qui-
=86-	=86-
2E\	-ren-
2E\	-tes
*lig	*
1G	au-
=87-	=87-
1A	.
*Xlig	*
*custos:G	*
!LO:TX:t=P:problem=kreska pseudotaktowa	!
1E	-tem
*	*Xij
=88-	=88-
!LO:LB:g=original	!
(2.G\	Do-
4F\	.
2E\)	.
2E\	-mi-
=89-	=89-
!LO:TX:t=P:problem=kreska pseudotaktowa	!
0D,<	-num,
=90-	=90-
1r	.
2r	.
!LO:TX:t=P:problem=kreska pseudotaktowa	!
2G\	non
=91-	=91-
2G\	mi-
2G\	-nu-
2F\	-en-
!LO:TX:t=P:problem=kreska pseudotaktowa	!
2D\	-tur
=92-	=92-
1F	om-
!LO:TX:t=P:problem=kreska pseudotaktowa	!
1C,<	-ni
=93-	=93-
(2.E\	bo-
4F\	.
1G)	.
=94-	=94-
!LO:TX:t=P:problem=kreska pseudotaktowa	!
1D,<	-no
0r	.
=95-	=95-
.	.
!LO:TX:t=P:problem=kreska pseudotaktowa	!
1r	.
=96-	=96-
1A	non
2A\	mi-
!LO:TX:t=P:problem=kreska pseudotaktowa	!
2A\	-nu-
=97-	=97-
1G	-en-
!LO:TX:t=P:problem=kreska pseudotaktowa	!
1D,<	-t(ur)
=98-	=98-
1r	.
2r	.
!LO:TX:t=P:problem=kreska pseudotaktowa	!
2G\	non
=99-	=99-
2G\	mi-
2G\	-nu-
2F\	-en-
!LO:TX:t=P:problem=kreska pseudotaktowa	!
2D\	-t(ur)
=100-	=100-
1F	om-
!LO:TX:t=P:problem=kreska pseudotaktowa	!
1C	-ni
=101-	=101-
1G	bo-
!LO:TX:t=P:problem=kreska pseudotaktowa	!
1D,<	-no,
=102-	=102-
!LO:LB:g=original	!
2r	.
!LO:TX:t=P:problem=kreska pseudotaktowa	!
2F\	non
2F\	mi-
!LO:TX:t=P:problem=kreska pseudotaktowa	!
2F\	-nu-
=103-	=103-
1E	-en-
!LO:TX:t=P:problem=kreska pseudotaktowa	!
1D,<	-t(ur)
=104-	=104-
2GG/	om-
2BB,</	-ni
(<4C/	bo-
4D/	.
4E\)	.
!LO:TX:t=P:problem=kreska pseudotaktowa	!
4F\	.
=105-	=105-
2.G\	.
4F\	.
1E	.
=106-	=106-
!LO:TX:t=P:problem=kreska pseudotaktowa	!
0D	-no
=107-	=107-
1r	.
2r	.
!LO:TX:t=P:problem=kreska pseudotaktowa	!
2G\	non
=108-	=108-
2G\	mi-
2G\	-nu-
2F\	-en-
!LO:TX:t=P:problem=kreska pseudotaktowa	!
2D\	-t(ur)
=109-	=109-
1F	om-
!LO:TX:t=P:problem=kreska pseudotaktowa	!
1C	-ni
=110-	=110-
(2.E\	bo-
4F\)	.
1G	.
=111-	=111-
!LO:TX:t=P:problem=kreska pseudotaktowa	!
1D	-no
0r	.
=112-	=112-
.	.
!LO:TX:t=P:problem=kreska pseudotaktowa	!
1r	.
=113-	=113-
1A	non
2A\	mi-
2A\	-nu-
=114-	=114-
1G	-en-
!LO:TX:t=P:problem=kreska pseudotaktowa	!
1D,<	-t(ur)
=115-	=115-
!LO:TX:a:t=1.	!
1r	.
2r	.
2G\	n(on)
=116-	=116-
2G\	mi-
!LO:TX:t=P:problem=kreska pseudotaktowa	!
2G\	-nu-
2F\	-en-
2D,<\	-t(ur)
=117-	=117-
1F	om-
1C,<	-ni
=118-	=118-
1GG	bo-
!LO:TX:t=P:problem=kreska pseudotaktowa	!
1D	-no
=119-	=119-
2r	.
*	*ij
2F\	non
2F\	mi-
2F\	-nu-
=120-	=120-
2E\	-en-
2E\	-tur
1D	om-
=121-	=121-
1GG	-ni
1C	bo-
=122-	=122-
0GG;	-no
*	*Xij
=-	=-
*-	*-
!!!RDF**kern: < = below
!!!RDF**kern: > = above
!!!ENC: Marta Chmielewska
!!!END: 2021-07-30
!!!ENC: Krzysztof Stępień
!!!END: 2021-07-01
